T: Broken Pledge, The
M: 6/8
L: 1/8
K: Bmin
A|FBB Bcd|cBA ecA|FBB Bcd|cAc B2:||:c|dcd fed|cAe AfA|dcB fga|edc B2:|||:c|dBb afb|aec Ace|dBb afb|aec B2:|
